icon/lg/bootstrap.svg

<?xml version="1.0" encoding="UTF-8"?>
<svg viewBox="0 0 256 204" version="1.1" xmlns="http://www.w3.org/2000/svg" preserveAspectRatio="xMidYMid" height="1em" width="1em">
  <g>
    <path d="M53.1720678,0 C38.5648814,0 27.7564746,12.7848136 28.2402712,26.6500339 C28.7045424,39.9707119 28.1014237,57.2225085 23.7581017,71.291661 C19.4017627,85.4020339 12.0341695,94.340339 0,95.488 L0,108.444203 C12.0341695,109.591864 19.4017627,118.530169 23.7581017,132.640542 C28.1014237,146.709695 28.7045424,163.961492 28.2402712,177.282169 C27.7564746,191.14522 38.5648814,203.932203 53.1742373,203.932203 L202.847458,203.932203 C217.454644,203.932203 228.260881,191.14739 227.777085,177.282169 C227.312814,163.961492 227.915932,146.709695 232.259254,132.640542 C236.617763,118.530169 243.965831,109.591864 256,108.444203 L256,95.488 C243.965831,94.340339 236.617763,85.4020339 232.259254,71.291661 C227.915932,57.224678 227.312814,39.9707119 227.777085,26.6500339 C228.260881,12.7869831 217.454644,0 202.847458,0 L53.1698983,0 L53.1720678,0 Z M173.559322,125.533288 C173.559322,144.624814 159.31878,156.20339 135.686508,156.20339 L95.4576271,156.20339 C93.0612729,156.20339 91.1186441,154.260761 91.1186441,151.864407 L91.1186441,52.0677966 C91.1186441,49.6714424 93.0612729,47.7288136 95.4576271,47.7288136 L135.456542,47.7288136 C155.162034,47.7288136 168.094373,58.4027119 168.094373,74.7910508 C168.094373,86.2936949 159.394712,96.5922712 148.31078,98.3951186 L148.31078,98.9960678 C163.399593,100.65139 173.559322,111.099661 173.559322,125.533288 Z M131.299797,61.4833898 L108.361763,61.4833898 L108.361763,93.8825763 L127.681085,93.8825763 C142.615864,93.8825763 150.851254,87.8687458 150.851254,77.1189153 C150.851254,67.0459661 143.770034,61.4833898 131.299797,61.4833898 L131.299797,61.4833898 Z M108.361763,106.738983 L108.361763,142.444475 L132.143729,142.444475 C147.692475,142.444475 155.930034,136.205017 155.930034,124.478915 C155.930034,112.750644 147.462508,106.736814 131.143593,106.736814 L108.361763,106.736814 L108.361763,106.738983 Z" fill="#7E13F8"/>
  </g>
</svg>

<svg width="256" height="204" xmlns="http://www.w3.org/2000/svg" preserveAspectRatio="xMidYMid"><path d="M53.172 0C38.565 0 27.756 12.785 28.24 26.65c.465 13.32-.139 30.573-4.482 44.642C19.402 85.402 12.034 94.34 0 95.488v12.956c12.034 1.148 19.402 10.086 23.758 24.197 4.343 14.069 4.947 31.32 4.482 44.641-.484 13.863 10.325 26.65 24.934 26.65h149.673c14.608 0 25.414-12.785 24.93-26.65-.464-13.32.139-30.572 4.482-44.641 4.359-14.11 11.707-23.05 23.741-24.197V95.488c-12.034-1.148-19.382-10.086-23.74-24.196-4.344-14.067-4.947-31.321-4.483-44.642C228.261 12.787 217.455 0 202.847 0H53.17h.002ZM173.56 125.533c0 19.092-14.24 30.67-37.872 30.67h-40.23a4.339 4.339 0 0 1-4.338-4.339V52.068a4.339 4.339 0 0 1 4.339-4.34h39.999c19.705 0 32.637 10.675 32.637 27.063 0 11.503-8.7 21.801-19.783 23.604v.601c15.089 1.655 25.248 12.104 25.248 26.537Zm-42.26-64.05h-22.937v32.4h19.32c14.934 0 23.17-6.014 23.17-16.764 0-10.073-7.082-15.636-19.552-15.636Zm-22.937 45.256v35.705h23.782c15.548 0 23.786-6.239 23.786-17.965 0-11.728-8.467-17.742-24.786-17.742h-22.782v.002Z" fill="#7E13F8"/></svg>
